src/access/icon/chemical.svg

<svg width="33" height="33" viewBox="0 0 33 33" fill="none" xmlns="http://www.w3.org/2000/svg">
<g clip-path="url(#clip3)">
<path d="M28.0564 29.4581L20.5679 17.4629V7.39754H21.2416C21.5591 7.39754 21.8165 7.14018 21.8165 6.82268V3.0505C21.8165 2.733 21.5591 2.47564 21.2416 2.47564H12.2322C11.9147 2.47564 11.6573 2.733 11.6573 3.0505V6.82268C11.6573 7.14018 11.9147 7.39754 12.2322 7.39754H12.906V9.79494C12.906 10.1124 13.1633 10.3698 13.4808 10.3698C13.7983 10.3698 14.0557 10.1124 14.0557 9.79494V7.39754H17.9236C18.2411 7.39754 18.4985 7.14018 18.4985 6.82268C18.4985 6.50519 18.2411 6.24782 17.9236 6.24782H12.8071V3.62536H20.6668V6.24789H19.993C19.6755 6.24789 19.4181 6.50525 19.4181 6.82275V17.6276C19.4181 17.7352 19.4484 17.8407 19.5053 17.932L26.5321 29.1878H24.5532C24.2357 29.1878 23.9783 29.4451 23.9783 29.7626C23.9783 30.0801 24.2357 30.3375 24.5532 30.3375H27.2061C27.3014 30.6377 27.2708 30.9631 27.1117 31.25C26.9031 31.626 26.5219 31.8504 26.092 31.8504H7.38175C6.95185 31.8504 6.57061 31.6259 6.36211 31.25C6.20297 30.963 6.17242 30.6377 6.26775 30.3375H22.2923C22.6098 30.3375 22.8671 30.0801 22.8671 29.7626C22.8671 29.4451 22.6098 29.1878 22.2923 29.1878H6.9416L13.7996 18.2025H18.0387C18.3562 18.2025 18.6135 17.9452 18.6135 17.6277C18.6135 17.3102 18.3562 17.0528 18.0387 17.0528H14.0557V11.7112C14.0557 11.3937 13.7983 11.1363 13.4808 11.1363C13.1633 11.1363 12.906 11.3937 12.906 11.7112V17.4629L5.41754 29.4581C4.96534 30.1824 4.94259 31.0607 5.35677 31.8075C5.77088 32.5542 6.52788 33.0001 7.38182 33.0001H26.0921C26.946 33.0001 27.7031 32.5543 28.1172 31.8074C28.5313 31.0606 28.5086 30.1824 28.0564 29.4581Z" fill="white"/>
<path d="M15.7393 19.95H14.0149C13.6974 19.95 13.44 20.2074 13.44 20.5249C13.44 20.8424 13.6974 21.0997 14.0149 21.0997H15.7393C16.0567 21.0997 16.3141 20.8424 16.3141 20.5249C16.3141 20.2074 16.0567 19.95 15.7393 19.95Z" fill="white"/>
<path d="M14.4747 22.1343H12.7502C12.4328 22.1343 12.1754 22.3917 12.1754 22.7092C12.1754 23.0267 12.4328 23.284 12.7502 23.284H14.4747C14.7922 23.284 15.0495 23.0267 15.0495 22.7092C15.0495 22.3917 14.7922 22.1343 14.4747 22.1343Z" fill="white"/>
<path d="M13.2102 24.3186H11.4858C11.1683 24.3186 10.9109 24.576 10.9109 24.8935C10.9109 25.211 11.1683 25.4684 11.4858 25.4684H13.2102C13.5277 25.4684 13.7851 25.211 13.7851 24.8935C13.7851 24.576 13.5277 24.3186 13.2102 24.3186Z" fill="white"/>
<path d="M25.702 15.3006C24.3549 15.3006 23.259 16.3965 23.259 17.7437C23.259 19.0908 24.3549 20.1867 25.702 20.1867C27.0491 20.1867 28.145 19.0907 28.145 17.7437C28.145 16.3966 27.049 15.3006 25.702 15.3006ZM25.702 19.037C24.9889 19.037 24.4087 18.4568 24.4087 17.7437C24.4087 17.0306 24.9889 16.4503 25.702 16.4503C26.4151 16.4503 26.9953 17.0305 26.9953 17.7437C26.9953 18.4568 26.4151 19.037 25.702 19.037Z" fill="white"/>
<path d="M9.34475 7.59152C8.14856 7.59152 7.17525 8.56476 7.17525 9.76088C7.17525 10.957 8.1485 11.9302 9.34475 11.9302C10.541 11.9302 11.5141 10.9571 11.5141 9.76088C11.5142 8.56469 10.541 7.59152 9.34475 7.59152ZM9.34475 10.7806C8.78246 10.7806 8.32497 10.3232 8.32497 9.76088C8.32497 9.19859 8.78246 8.7411 9.34475 8.7411C9.90704 8.7411 10.3645 9.19859 10.3645 9.76088C10.3645 10.3232 9.90704 10.7806 9.34475 10.7806Z" fill="white"/>
<path d="M6.30499 18.255C5.35817 18.255 4.58789 19.0253 4.58789 19.9721C4.58789 20.9189 5.35817 21.6892 6.30499 21.6892C7.2518 21.6892 8.02208 20.9189 8.02208 19.9721C8.02208 19.0253 7.2518 18.255 6.30499 18.255ZM6.30499 20.5395C5.99213 20.5395 5.73761 20.285 5.73761 19.9722C5.73761 19.6593 5.99213 19.4048 6.30499 19.4048C6.61784 19.4048 6.87237 19.6593 6.87237 19.9722C6.87237 20.285 6.61784 20.5395 6.30499 20.5395Z" fill="white"/>
<path d="M10.7076 15.8657C11.0251 15.8657 11.2824 15.6083 11.2824 15.2908C11.2824 14.9733 11.0251 14.716 10.7076 14.716C10.3901 14.716 10.1327 14.9733 10.1327 15.2908C10.1327 15.6083 10.3901 15.8657 10.7076 15.8657Z" fill="white"/>
<path d="M19.1771 1.14971C19.4946 1.14971 19.7519 0.892342 19.7519 0.574857C19.7519 0.257372 19.4946 0 19.1771 0C18.8596 0 18.6022 0.257372 18.6022 0.574857C18.6022 0.892342 18.8596 1.14971 19.1771 1.14971Z" fill="white"/>
<path d="M23.1794 11.041C23.4969 11.041 23.7543 10.7836 23.7543 10.4661C23.7543 10.1486 23.4969 9.89127 23.1794 9.89127C22.862 9.89127 22.6046 10.1486 22.6046 10.4661C22.6046 10.7836 22.862 11.041 23.1794 11.041Z" fill="white"/>
</g>
<defs>
<clipPath id="clip3">
<rect width="33" height="33" fill="white"/>
</clipPath>
</defs>
</svg>

<svg xmlns="http://www.w3.org/2000/svg" width="33" height="33" fill="none" viewBox="0 0 33 33">
  <g class="chemical">
    <g class="fill">
      <path fill="#fff" d="M28.056 29.458l-7.488-11.995V7.397h.673a.575.575 0 00.575-.574V3.05a.575.575 0 00-.575-.574h-9.01a.575.575 0 00-.574.574v3.773c0 .317.257.574.575.574h.674v2.398a.575.575 0 001.15 0V7.397h3.867a.575.575 0 100-1.15h-5.116V3.626h7.86v2.623h-.674a.575.575 0 00-.575.575v10.805c0 .107.03.213.087.304l7.027 11.256h-1.98a.575.575 0 000 1.15h2.654c.095.3.065.625-.095.912-.208.376-.59.6-1.02.6H7.382c-.43 0-.81-.224-1.02-.6a1.15 1.15 0 01-.093-.913h16.024a.575.575 0 100-1.15H6.942l6.857-10.985h4.24a.575.575 0 000-1.15h-3.984v-5.34a.575.575 0 00-1.15 0v5.75L5.418 29.459a2.287 2.287 0 00-.06 2.35A2.287 2.287 0 007.382 33h18.71c.854 0 1.61-.446 2.025-1.193a2.287 2.287 0 00-.06-2.349z"/>
      <path fill="#fff" d="M15.74 19.95h-1.725a.575.575 0 100 1.15h1.724a.575.575 0 000-1.15z"/>
      <path fill="#fff" d="M14.475 22.134H12.75a.575.575 0 100 1.15h1.725a.575.575 0 000-1.15z"/>
      <path fill="#fff" d="M13.21 24.319h-1.724a.575.575 0 000 1.15h1.724a.575.575 0 100-1.15z"/>
      <path fill="#fff" d="M25.702 15.3a2.446 2.446 0 00-2.443 2.444 2.446 2.446 0 002.443 2.443 2.446 2.446 0 002.443-2.443 2.446 2.446 0 00-2.443-2.444zm0 3.737c-.713 0-1.294-.58-1.294-1.293s.58-1.294 1.294-1.294a1.295 1.295 0 010 2.587z"/>
      <path fill="#fff" d="M9.345 7.592c-1.197 0-2.17.973-2.17 2.169 0 1.196.973 2.17 2.17 2.17 1.196 0 2.169-.974 2.169-2.17s-.973-2.17-2.17-2.17zm0 3.189a1.02 1.02 0 010-2.04 1.02 1.02 0 010 2.04z" />
      <path fill="#fff" d="M6.305 18.255c-.947 0-1.717.77-1.717 1.717 0 .947.77 1.717 1.717 1.717.947 0 1.717-.77 1.717-1.717 0-.947-.77-1.717-1.717-1.717zm0 2.284a.568.568 0 11.001-1.136.568.568 0 01-.001 1.136z"/>
      <path fill="#fff" d="M10.707 15.866a.575.575 0 100-1.15.575.575 0 000 1.15z"/>
      <path fill="#fff" d="M19.177 1.15a.575.575 0 100-1.15.575.575 0 000 1.15z"/>
      <path fill="#fff" d="M23.18 11.041a.575.575 0 100-1.15.575.575 0 000 1.15z"/>
    </g>
  </g>
</svg>
